views/elements/svg/theme21.svg

<svg width="442" height="115" viewBox="0 0 442 115" fill="none" xmlns="http://www.w3.org/2000/svg">
    <path d="M0 32.0601L441.96 0L152.52 114.39L0 32.0601Z" fill="#00A6E0"/>
    <path d="M31.73 34.9099C31.9647 34.4863 32.2836 34.1149 32.6671 33.8191C33.0506 33.5233 33.4906 33.3091 33.96 33.1897C46.56 29.0097 59.1533 24.8132 71.74 20.5999C72.5807 20.3 73.4992 20.3 74.34 20.5999C86.9466 24.8199 99.5633 29.0267 112.19 33.22C112.739 33.3631 113.246 33.6333 113.67 34.0095C113.978 34.3054 114.203 34.6762 114.325 35.0852C114.447 35.4943 114.461 35.928 114.365 36.344C114.269 36.76 114.068 37.144 113.779 37.4588C113.491 37.7735 113.126 38.0082 112.72 38.1399C110.89 38.8399 109.01 39.4096 107.15 40.0296C96.3433 43.6429 85.5366 47.253 74.73 50.8596C73.6396 51.2447 72.4503 51.2447 71.36 50.8596C58.96 46.6996 46.5466 42.5597 34.1199 38.4397C33.6236 38.3223 33.1562 38.1059 32.7455 37.8035C32.3348 37.5011 31.9894 37.119 31.73 36.68V34.9099Z" fill="#C2E9F8"/>
    <path d="M47.1799 56.4104V48.7405C47.1799 47.7405 47.2299 47.74 48.1799 48.03C55.5499 50.48 62.9199 52.9201 70.2799 55.4001C72.0445 56.0151 73.9653 56.0151 75.7299 55.4001L97.8299 48.0403C98.8299 47.7003 98.8299 47.7202 98.8299 48.7702C98.8299 53.7702 98.8299 58.8303 98.8299 63.8503C98.8405 64.3333 98.7468 64.8131 98.5553 65.2566C98.3637 65.7001 98.0788 66.0968 97.7199 66.4201C92.0233 72.0506 84.5466 75.5257 76.5699 76.2502C71.4038 76.8217 66.1753 76.2333 61.2656 74.5276C56.3559 72.8218 51.8888 70.0418 48.1899 66.3904C47.8298 66.069 47.5453 65.6716 47.3568 65.2273C47.1684 64.7829 47.0806 64.3023 47.0999 63.82C47.1999 61.35 47.1799 58.8804 47.1799 56.4104Z" fill="#C2E9F8"/>
    <path d="M109.23 57.1799C109.23 61.1299 109.23 65.0795 109.23 69.0295C109.195 69.301 109.252 69.5763 109.392 69.8118C109.531 70.0472 109.745 70.2297 110 70.3298C111.34 70.918 112.475 71.8925 113.259 73.1287C114.042 74.3649 114.44 75.8066 114.4 77.2698C114.4 81.4898 114.4 85.7099 114.4 89.9299C114.449 90.307 114.41 90.69 114.288 91.0501C114.166 91.4101 113.963 91.7372 113.694 92.0066C113.426 92.2759 113.099 92.4802 112.74 92.6038C112.38 92.7274 111.997 92.7674 111.62 92.72H101.87C101.492 92.7646 101.108 92.724 100.748 92.6018C100.387 92.4796 100.059 92.2788 99.7855 92.0134C99.5125 91.7481 99.302 91.4251 99.1696 91.0681C99.0372 90.7112 98.986 90.3292 99.0199 89.95C99.0199 85.75 98.9499 81.5599 99.0199 77.3699C98.9832 75.8765 99.3928 74.4061 100.196 73.1467C101 71.8873 102.16 70.8958 103.53 70.2996C104.16 69.9996 104.18 69.5498 104.18 68.9998C104.18 61.7398 104.18 54.4831 104.18 47.2297C104.18 45.9297 104.18 45.9195 105.37 45.5295C106.37 45.1995 107.37 44.8995 108.37 44.5295C109.06 44.2595 109.26 44.4397 109.25 45.1697C109.22 49.1697 109.23 53.1799 109.23 57.1799Z" fill="#C2E9F8"/>
    <path d="M141.98 27.9302H156.89L153.59 46.5601H138.65L141.98 27.9302ZM145.04 31.6499L143.04 42.8301H150.49L152.49 31.6499H145.04Z" fill="white"/>
    <path d="M170.47 35.3799C170.587 35.3747 170.704 35.3966 170.811 35.4434C170.919 35.4901 171.014 35.5607 171.09 35.6499C171.164 35.7408 171.216 35.8479 171.242 35.9624C171.269 36.0769 171.268 36.1959 171.24 36.3101L169.6 45.6299C169.551 45.8886 169.413 46.1222 169.21 46.29C169.013 46.4623 168.761 46.5581 168.5 46.5601H155.45L158.75 27.9302H172.75L172.08 31.6499H161.81L161.16 35.3799H170.47ZM159.85 42.8301H166.37L167.03 39.1099H160.5L159.85 42.8301Z" fill="white"/>
    <path d="M178.21 39.1099L176.88 46.5601H173.16L175.78 31.6499H173.92L174.59 27.9302H189.5L187.5 39.1099H178.21ZM179.51 31.6499L178.86 35.3799H184.45L185.1 31.6499H179.51Z" fill="white"/>
    <path d="M199.65 39.1099H193.13L191.81 46.5601H188.08L191.38 27.9302H205.38L202.08 46.5601H198.35L199.65 39.1099ZM200.96 31.6499H194.44L193.78 35.3799H200.31L200.96 31.6499Z" fill="white"/>
    <path d="M207.2 27.9302H218.38L217.06 35.3799L214.86 37.2402L216.4 39.1099L215.08 46.5601H203.9L204.9 40.9702H208.65L208.34 42.8301H212.06L212.72 39.1099H208.95L209.6 35.3799H213.33L213.98 31.6499H210.26L209.94 33.52H206.21L207.2 27.9302Z" fill="white"/>
    <path d="M220.24 27.9302H235.15L231.85 46.5601H216.94L220.24 27.9302ZM223.3 31.6499L221.3 42.8301H228.75L230.75 31.6499H223.3Z" fill="white"/>
    <path d="M250.99 27.9302L247.69 46.5601H233.69L236.99 27.9302H250.99ZM244.63 42.8301L245.29 39.1099H238.76L238.11 42.8301H244.63ZM246.63 31.6499H240.11L239.46 35.3799H245.98L246.63 31.6499Z" fill="white"/>
    <path d="M261.12 39.1099H254.65L253.33 46.5601H249.55L252.85 27.9302H266.85L263.55 46.5601H259.82L261.12 39.1099ZM262.43 31.6499H255.91L255.25 35.3799H261.78L262.43 31.6499Z" fill="white"/>
    <path d="M277.34 31.6499L274.71 46.5601H270.98L273.61 31.6499H267.09L267.76 27.9302H284.53L283.86 31.6499H277.34Z" fill="white"/>
    <path d="M296.65 27.9302L295.98 31.6499H288.52L288.21 33.52H295.65L294.98 37.2402H287.53L286.53 42.8301H293.98L293.31 46.5601H282.13L285.43 27.9302H296.65Z" fill="white"/>
    <path d="M305.84 33.8301L298.37 46.5601H294.27L305.21 27.9302H308.56L312.91 46.5601H308.81L305.84 33.8301Z" fill="white"/>
    <path d="M318.65 35.3799H328.89L326.89 46.5601H312.89L316.17 27.9302H319.9L318.65 35.3799ZM323.86 42.8301L324.52 39.1099H317.99L317.34 42.8301H323.86Z" fill="white"/>
    <path d="M342.33 27.9302H346.05L342.76 46.5601H339.03L340.46 38.5601H333.94L332.51 46.5601H328.78L332.08 27.9302H335.8L334.65 34.5H341.17L342.33 27.9302Z" fill="white"/>
    <path d="M351.65 27.9302L350.33 35.3799H358.72L356.72 46.5601H344.65L347.95 27.9302H351.65ZM349.03 42.8301H353.65L354.31 39.1099H349.65L349.03 42.8301ZM361.4 46.5601H357.65L360.93 27.9302H364.65L361.4 46.5601Z" fill="white"/>
    <path d="M377.73 27.9302L377.06 31.6499H369.65L369.33 33.52H376.78L376.11 37.2402H368.65L367.65 42.8301H375.1L374.43 46.5601H363.25L366.55 27.9302H377.73Z" fill="white"/>
    <path d="M150.65 60.7202L148.02 75.6299H144.29L146.92 60.7202H140.4L141.07 56.9902H157.84L157.17 60.7202H150.65Z" fill="white"/>
    <path d="M169.93 56.9902L169.26 60.7202H161.81L161.49 62.5801H168.94L168.27 66.3101H160.82L159.82 71.8999H167.27L166.6 75.6299H155.45L158.75 56.9902H169.93Z" fill="white"/>
    <path d="M175.52 56.9902L178.22 62.73L182.98 56.9902H187.65L179.94 66.3101L184.36 75.6299H179.65L176.95 69.8901L172.19 75.6299H167.54L175.23 66.3101L172.59 60.7202H169.23L169.9 56.9902H175.52Z" fill="white"/>
    <path d="M198.81 56.9902H202.54L199.24 75.6299H195.51L196.95 67.6299H190.43L188.99 75.6299H185.27L188.56 56.9902H192.29L191.15 63.5H197.65L198.81 56.9902Z" fill="white"/>
    <path d="M204.4 56.9902H219.31L216.01 75.6299H201.11L204.4 56.9902ZM207.46 60.7202L205.46 71.8999H212.92L214.92 60.7202H207.46Z" fill="white"/>
    <path d="M228.51 62.8999L221.04 75.6299H216.94L227.88 56.9902H231.24L235.58 75.6299H231.48L228.51 62.8999Z" fill="white"/>
    <path d="M238.91 56.9902H253.82L250.52 75.6299H235.65L238.91 56.9902ZM241.97 60.7202L239.97 71.8999H247.42L249.42 60.7202H241.97Z" fill="white"/>
    <path d="M258.65 71.8999H260.51L259.84 75.6299H252.38L253.06 71.8999H254.92L256.92 60.7202H255.05L255.72 56.9902H268.77L267.77 62.5801H264.04L264.36 60.7202H260.65L258.65 71.8999Z" fill="white"/>
    <path d="M280.84 56.9902H284.56L281.27 75.6299H277.54L279.22 66.1201L271.69 71.8999L271.02 75.6299H267.29L270.59 56.9902H274.32L272.65 66.5L280.18 60.7202L280.84 56.9902Z" fill="white"/>
    <path d="M296.65 56.9902H300.37L297.07 75.6299H293.35L295.02 66.1201L287.5 71.8999L286.83 75.6299H283.1L286.4 56.9902H290.12L288.45 66.5L295.98 60.7202L296.65 56.9902Z" fill="white"/>
</svg>

<svg width="443" xmlns="http://www.w3.org/2000/svg" viewBox="0 0 442 114.4">
    <defs>
        <style>
            .cls-21{fill:#00b0e0;}.cls-2{fill:#b2e7f6;}.cls-3{font-size:24px;fill:#fff;font-family:RED_GaliverSans-BoldItalic,
            RED_Galiver Sans;font-weight:700;font-style:italic;}
        </style>
    </defs>
    <title>Asset 8</title>
    <g id="Layer_2" data-name="Layer 2">
        <g id="Слой_1" data-name="Слой 1">
            <polygon class="cls-21" points="0 32.07 442 0 152.53 114.4 0 32.07"/>
            <path class="cls-2"
                  d="M31.74,34.91A3.54,3.54,0,0,1,34,33.2q18.9-6.29,37.79-12.6a4,4,0,0,1,2.59,0l37.86,12.63a3.64,3.64,0,0,1,1.48.78,2.48,2.48,0,0,1-1,4.14c-1.83.69-3.71,1.27-5.57,1.89Q91,45.44,74.74,50.86a5,5,0,0,1-3.36,0Q52.77,44.63,34.13,38.45a3.78,3.78,0,0,1-2.39-1.77Z"/>
            <path class="cls-2"
                  d="M47.19,56.41V48.75c0-1,.05-1,1-.72,7.37,2.46,14.74,4.9,22.1,7.37a8.28,8.28,0,0,0,5.45,0c7.37-2.47,14.74-4.91,22.11-7.37,1-.34,1-.32,1,.74,0,5,0,10.05,0,15.08a3.29,3.29,0,0,1-1.11,2.57,34.5,34.5,0,0,1-21.15,9.83,34.93,34.93,0,0,1-28.38-9.86,3.29,3.29,0,0,1-1.09-2.58C47.21,61.36,47.19,58.89,47.19,56.41Z"/>
            <path class="cls-2"
                  d="M109.25,57.19c0,4,0,7.9,0,11.85a1.21,1.21,0,0,0,.77,1.3,7.36,7.36,0,0,1,4.4,6.94c0,4.22,0,8.44,0,12.66a2.48,2.48,0,0,1-2.77,2.79h-9.76A2.57,2.57,0,0,1,99,90c0-4.19-.06-8.38,0-12.57a7.5,7.5,0,0,1,4.51-7.07c.64-.3.65-.75.65-1.31V47.23c0-1.3,0-1.3,1.2-1.7,1-.33,2-.63,3-1,.69-.26.88-.08.88.64C109.23,49.18,109.25,53.18,109.25,57.19Z"/>
            <text class="cls-3" transform="translate(139.86 47.43)">ОБРАЗОВАТЕЛЬНЫЕ
                <tspan x="0" y="28.8">ТЕХНОЛОГИИ</tspan>
            </text>
        </g>
    </g>
</svg>
